common/app/assets/images/global/date.svg

<svg xmlns="http://www.w3.org/2000/svg" width="10" height="10"><g fill="#545454"><path d="M5.432 4.823v-2.436c0-.243-.195-.432-.432-.432s-.432.19-.432.432v2.79l1.342 1.383c.083.089.195.13.307.13s.219-.041.301-.118c.172-.165.179-.443.013-.614l-1.099-1.135z"/><path fill-rule="evenodd" clip-rule="evenodd" d="M5 8.5c-1.927 0-3.5-1.573-3.5-3.5s1.573-3.5 3.5-3.5 3.5 1.573 3.5 3.5-1.573 3.5-3.5 3.5zm0-8.525c-2.772 0-5.025 2.253-5.025 5.025s2.253 5.025 5.025 5.025 5.025-2.253 5.025-5.025-2.253-5.025-5.025-5.025z"/></g></svg>

<svg xmlns="http://www.w3.org/2000/svg" width="10" height="10"><g fill="#545454"><path d="M5.432 4.823V2.387c0-.243-.195-.432-.432-.432s-.432.19-.432.432v2.79L5.91 6.56c.083.09.195.13.307.13s.22-.04.3-.118c.173-.165.18-.443.014-.614L5.44 4.823z"/><path fill-rule="evenodd" clip-rule="evenodd" d="M5 8.5C3.073 8.5 1.5 6.927 1.5 5S3.073 1.5 5 1.5 8.5 3.073 8.5 5 6.927 8.5 5 8.5zM5-.025C2.228-.025-.025 2.228-.025 5S2.228 10.025 5 10.025 10.025 7.772 10.025 5 7.772-.025 5-.025z"/></g></svg>
